X:1
T:Title
%%score { 1 | 2 }
L:1/8
Q:1/4=94
M:2/2
K:Eb
V:1 treble nm="Grand Piano"
V:2 bass 
V:1
 G2 B2 A3 F | G3 F E2 D2 | E2 [_DE]2 [Cc]3 [=Dc] | [EB]2 [DA]2 [EG]4 | [EG]2 [FG]2 [Ee]3 [Ed] | %5
w: Charles~S.~Brown * * *|||||
 [Ec]2 [EG]2 B2 A2 | E2 F2 G3 A | [DF]2 [DG]2 [B,E]4 |] %8
w: |||
V:2
 [E,B,E]2 [G,_DE]2 [A,CE]3 [=A,CE] | [B,E]3 [A,B,D] [G,B,]2 [F,A,B,]2 | %2
 [E,G,B,]2 [G,,E,]2 [A,,E,]3 [A,,F,] | [B,,G,]2 [B,,B,]2 [E,B,]4 | [E,B,]2 [D,=B,]2 [C,C]3 [C,G,] | %5
 [C,G,]2 [C,C]2 [F,G,C]2 [F,A,C]2 | [A,C]2 [A,CE]2 [G,CE]3 [F,CE] | [B,,A,]2 [B,,B,]2 [E,G,]4 |] %8

